remix/Business/at-fill.svg

<svg viewBox="0 0 24 24" fill="currentColor" xmlns="http://www.w3.org/2000/svg"><path d="M12 22C6.47715 22 2 17.5228 2 12C2 6.47715 6.47715 2 12 2C17.5228 2 22 6.47715 22 12C22 17.5228 17.5228 22 12 22ZM20 12C20 7.58172 16.4183 4 12 4C7.58172 4 4 7.58172 4 12C4 16.4183 7.58172 20 12 20C13.4702 20 14.8478 19.6034 16.0316 18.9114L15.0237 17.1835C14.1359 17.7026 13.1027 18 12 18C8.68629 18 6 15.3137 6 12C6 8.68629 8.68629 6 12 6C15.3137 6 18 8.68629 18 12V13C18 13.5523 17.5523 14 17 14C16.4477 14 16 13.5523 16 13V9H14.6458C13.9407 8.37764 13.0144 8 12 8C9.79086 8 8 9.79086 8 12C8 14.2091 9.79086 16 12 16C13.0465 16 13.9991 15.5982 14.7119 14.9404C15.2622 15.5886 16.0831 16 17 16C18.6569 16 20 14.6569 20 13V12ZM12 10C13.1046 10 14 10.8954 14 12C14 13.1046 13.1046 14 12 14C10.8954 14 10 13.1046 10 12C10 10.8954 10.8954 10 12 10Z"/></svg>

<svg viewBox="0 0 24 24" xmlns="http://www.w3.org/2000/svg"><path fill="none" d="M0 0h24v24H0Z"/><path d="M12 22C6.477 22 2 17.523 2 12 2 6.477 6.477 2 12 2c5.523 0 10 4.477 10 10s-4.477 10-10 10Zm8-10v0c-.01-4.42-3.59-8-8.01-8s-8 3.58-8 8c0 4.41 3.58 7.99 8 7.99 1.41-.01 2.8-.38 4.03-1.1l-1.01-1.73h0c-2.87 1.67-6.54.7-8.21-2.16 -1.68-2.87-.71-6.54 2.15-8.21 2.86-1.68 6.53-.71 8.2 2.15 .53.91.81 1.96.81 3.02v1 0c0 .55-.45 1-1 1 -.56 0-1-.45-1-1v-4H14.6v0c-1.66-1.47-4.19-1.31-5.65.35 -1.47 1.65-1.31 4.18.35 5.64 1.53 1.35 3.85 1.33 5.35-.06v-.001c1.07 1.26 2.96 1.41 4.22.34 .67-.57 1.05-1.41 1.05-2.29v-1Zm-8-2v0c1.1 0 2 .89 2 2 0 1.1-.9 2-2 2v0c-1.11 0-2-.9-2-2 0-1.11.89-2 2-2Z"/></svg>
